X: 2364
T: HANG FIRE
R: Clog Dance.
%R: clog dance, hornpipe, reel
B: James Kerr "Merry Melodies" v.2 p.40 #364
Z: 2016 John Chambers <jc:trillian.mit.edu>
M: C
L: 1/8
K: A
uE2 !segno!|:\
vA2ce agfe | dcBA GBE2 |\
B2GB zGB2 |[1 zcBA GBE2 :|[2 A2c2A2 :|
|: (A/B/c/d/) |:\
e2ce zce2 | f2df zdf2 |\
[1,3 e2ce zce2 | B2GB zGB2 :|\
[2,4 Aceg agae | fdBG A2 !segno!:|

%%sep 1 1 500
%%sep 1 1 500

